X: 10081
M: C|
L: 1/8
K: Bb
((3FGA) !segno!|\
|: (cB) |\
=egcg egcg | =eceg bgeg | fcaf =ebge |[1 {g}f=efg f2 :|[2 (f=e)fg (fe)_ec !segno!|]


